X:30
T:The Sporting Lass of Tel Aviv
R:reel
C: 1978, 2010 L.E. McCullough 
M:4/4
L:1/8
K:G
~g3e dege|d~B3 ~G3A|~B3A Bded|e~g3 ~a3f|
~g3e d~g3|dBAB ~G3A|~B3A (3B^cd ge|dBAB ~G3A|]
~B3A (3B^cd ed|e~g3 agef|~g3e dega|bgaf ~g3e|
d~e3 dGBd|e~g3 ~a3g|b~g3 abge|dBAB ~G3f|]


